epam-assets/icon-sources/18/action-currency_off.svg

<svg width="18" height="18" viewBox="0 0 18 18" fill="none" xmlns="http://www.w3.org/2000/svg">
<g id="18/action-currency_off">
<path id="icon" fill-rule="evenodd" clip-rule="evenodd" d="M2.25 3.2025L3.21 2.25L15.75 14.79L14.7975 15.75L12.045 12.9975C11.58 13.5 10.905 13.9125 10.125 14.115V15.75H7.875V14.115C6.3525 13.7325 5.25 12.5925 5.25 11.25H6.75C6.75 12.06 7.7775 12.75 9 12.75C9.8475 12.75 10.605 12.42 10.9875 11.94L8.76 9.7125C7.185 9.315 5.25 8.8125 5.25 6.75C5.25 6.5775 5.25 6.4125 5.3025 6.255L2.25 3.2025ZM7.875 3.885V2.25H10.125V3.885C11.6475 4.2675 12.75 5.4075 12.75 6.75H11.25C11.25 5.94 10.2225 5.25 9 5.25C8.7225 5.25 8.46 5.2875 8.2125 5.3475L7.05 4.185L7.875 3.885Z" fill="#6C6F80"/>
</g>
</svg>

<svg xmlns="http://www.w3.org/2000/svg" width="18" height="18" fill="none" viewBox="0 0 18 18">
  <path fill="#6C6F80" fill-rule="evenodd" d="m2.25 3.203.96-.953 12.54 12.54-.953.96-2.752-2.752c-.465.502-1.14.915-1.92 1.117v1.635h-2.25v-1.635c-1.522-.383-2.625-1.523-2.625-2.865h1.5c0 .81 1.027 1.5 2.25 1.5.848 0 1.605-.33 1.988-.81L8.76 9.713c-1.575-.398-3.51-.9-3.51-2.963 0-.173 0-.338.053-.495L2.25 3.203Zm5.625.682V2.25h2.25v1.635c1.523.383 2.625 1.522 2.625 2.865h-1.5c0-.81-1.027-1.5-2.25-1.5-.277 0-.54.037-.787.098L7.05 4.184l.825-.3Z" clip-rule="evenodd"/>
</svg>
